icons/key-asterisk-24.svg

<svg width="24" height="24" viewBox="0 0 24 24">
  <path
    d="M12.75 8C12.75 7.58579 12.4142 7.25 12 7.25C11.5858 7.25 11.25 7.58579 11.25 8V10.701L8.91089 9.35047C8.55217 9.14336 8.09348 9.26627 7.88637 9.62499C7.67927 9.98371 7.80217 10.4424 8.16089 10.6495L10.5 12L8.1609 13.3505C7.80218 13.5576 7.67927 14.0163 7.88638 14.375C8.09349 14.7337 8.55218 14.8566 8.9109 14.6495L11.25 13.2991V16C11.25 16.4142 11.5858 16.75 12 16.75C12.4142 16.75 12.75 16.4142 12.75 16V13.299L15.0891 14.6495C15.4478 14.8566 15.9065 14.7337 16.1136 14.375C16.3207 14.0163 16.1978 13.5576 15.8391 13.3505L13.5 12L15.8391 10.6495C16.1978 10.4424 16.3207 9.98373 16.1136 9.62501C15.9065 9.26629 15.4478 9.14339 15.0891 9.35049L12.75 10.701V8Z"
  />
  <path
    d="M2 3.75C2 2.7835 2.7835 2 3.75 2H20.25C21.2165 2 22 2.7835 22 3.75V20.25C22 21.2165 21.2165 22 20.25 22H3.75C2.7835 22 2 21.2165 2 20.25V3.75ZM3.75 3.5C3.61193 3.5 3.5 3.61193 3.5 3.75V20.25C3.5 20.3881 3.61193 20.5 3.75 20.5H20.25C20.3881 20.5 20.5 20.3881 20.5 20.25V3.75C20.5 3.61193 20.3881 3.5 20.25 3.5H3.75Z"
  />
</svg>

<svg xmlns="http://www.w3.org/2000/svg" width="24" height="24" viewBox="0 0 24 24"><path d="M12.75 8a.75.75 0 0 0-1.5 0v2.701l-2.34-1.35a.75.75 0 0 0-.75 1.298L10.5 12l-2.34 1.35a.75.75 0 1 0 .75 1.3l2.34-1.35V16a.75.75 0 0 0 1.5 0v-2.701l2.34 1.35a.75.75 0 0 0 .75-1.298L13.5 12l2.34-1.35a.75.75 0 0 0-.75-1.3l-2.34 1.351V8Z"/><path d="M2 3.75C2 2.784 2.784 2 3.75 2h16.5c.966 0 1.75.784 1.75 1.75v16.5A1.75 1.75 0 0 1 20.25 22H3.75A1.75 1.75 0 0 1 2 20.25V3.75Zm1.75-.25a.25.25 0 0 0-.25.25v16.5c0 .138.112.25.25.25h16.5a.25.25 0 0 0 .25-.25V3.75a.25.25 0 0 0-.25-.25H3.75Z"/></svg>
